X:1
T:Christmas Is the Dearest Day
T:Christmas Is the Dearest Day
T:Solomon W. Straub
T:Solomon W. Straub, 1893
T:Public Domain Courtesy of the Cyber Hymnal™
T:Public Domain Courtesy of the Cyber Hymnal™
C:Solomon W. Straub
Z:Public Domain
Z:Courtesy of the Cyber Hymnal™
%%score ( 1 2 ) ( 3 4 )
L:1/8
Q:1/4=105
M:4/4
K:F
V:1 treble 
V:2 treble 
V:3 bass 
V:4 bass 
V:1
 C | c2 A2 F2 C2 | D2 [FB]2 [FA]3 A | c2 A2 F2 [FA]2 | [EG]6 z C | c2 A2 F2 C2 | %6
w: 1.~The|light of Christ- mas|morn- ing steals A-|cross the drift- ed|snow; And|o’er the hills the|
w: 2.~The|star that rose o’er|Beth- le- hem To|hail the Sav- ior’s|birth, Ere|morn- ing’s ro- sy|
w: 3.~The|words the wak- ing|shep- herds heard From|an- gels in the|skies, When|God un- bound with|
 [B,D]2 [DB]2 !fermata![DB]3 [DB] | [CA]2 [CG]2 C2 [CG]2 | [CF]6 [FA]2 | [GB]3 [FA] [EG]2 [EG]2 | %10
w: dis- tant bells Are|toil- ing sweet and|low; Then|let us lift our|
w: tide of light, With|glo- ry filled the|earth; Shine|in our souls, and|
w: might- y hand The|gates of Par- a-|dise, Are|heard a- gain at|
 [Ac]3 [GB] [FA]2 [Ac]2 | [Ge]3 [Ec] [EG]2 ([FA][D=B]) | [Ec]6 z C | c2 A2 F2 C2 | %14
w: voic- es loud, And|sing with joy and *|cheer, For|Christ- mas is the|
w: dawn a- gain When|Christ- mas draw- eth *|near, For|Christ- mas is the|
w: Christ- mas- tide In|strains of mu- sic *|clear, And|Christ- mas is the|
 [B,D]2 [DB]2 !fermata![DB]3 [DB] | [CA]2 [CG]2 C2 [CG]2 | [CF]6 || %17
w: dear- est day In|all the hap- py|year.|
w: dear- est day In|all the hap- py|year.|
w: dear- est day In|all the hap- py|year.|
"^Refrain"!f! [Ac]3 [Ac] [Ac]2 [FA]2 | [Ac]3 [Ac] [Ac]2 [FA]2 | [Ac]3 [Ac] [Ac]2 [FA]2 | %20
w: |||
w: Hal- le- lu- jah!|hal- le- lu- jah!|Hal- le- lu- jah!|
w: |||
 (dc) (BA) [FA]2 [EG]2 | [EB]3 [EB] [EB]2 [EG]2 | [EB]3 [EB] [EB]2 [EG]2 | %23
w: |||
w: Praise * the * Sav- ior,|Hal- le- lu- jah!|hal- le- lu- jah!|
w: |||
 [Ge]2 [Gd]2 !fermata![Fc]2 [CE]2 | [CF]6 z |] %25
w: ||
w: Crown Him Lord and|king.|
w: ||
V:2
 C | c2 A2 F2 C2 | D2 x3 A x2 | c2 A2 F2 x2 | x7 C | c2 A2 F2 C2 | x8 | x4 C2 x2 | x8 | x8 | x8 | %11
 x8 | x7 C | c2 A2 F2 C2 | x8 | x4 C2 x2 | x6 || x8 | x8 | x8 | F2 F2 x4 | x8 | x8 | x8 | x7 |] %25
V:3
 C, | C2 A,2 F,2 [F,A,]2 | [F,B,]2 [F,D]2 [F,C]3 A, | C2 A,2 F,2 [F,A,]2 | [C,C]6 z C, | %5
 C2 A,2 F,2 [F,A,]2 | [B,,F,]2 [B,,F,]2 !fermata![B,,F,]3 [B,,F,] | %7
 [C,F,]2 [C,E,]2 [C,E,]2 [C,B,]2 | [F,A,]6 z2 | z8 | z8 | z8 | z6 z C, | C2 A,2 F,2 [F,A,]2 | %14
 [B,,F,]2 [B,,F,]2 !fermata![B,,F,]3 [B,,F,] | [C,F,]2 [C,E,]2 [C,E,]2 [C,B,]2 | [F,A,]6 || %17
 [F,C]3 [F,C] [F,C]2 [F,C]2 | [F,C]3 [F,C] [F,C]2 [F,C]2 | [F,C]3 [F,C] [F,C]2 [F,C]2 | %20
 (B,A,) (G,F,) [C,C]2 [C,C]2 | [C,G,]3 [C,G,] [C,G,]2 [C,B,]2 | [C,G,]3 [C,G,] [C,G,]2 [C,B,]2 | %23
 [C,B,]2 [C,B,]2 !fermata![C,B,]2 [C,B,]2 | [F,A,]6 z |] %25
V:4
 C, | C2 A,2 F,2 x2 | x7 A, | C2 A,2 F,2 x2 | x7 C, | C2 A,2 F,2 x2 | x8 | x8 | x8 | x8 | x8 | x8 | %12
 x7 C, | C2 A,2 F,2 x2 | x8 | x8 | x6 || x8 | x8 | x8 | F,2 F,2 x4 | x8 | x8 | x8 | x7 |] %25

